_posts/events/feature.svg

<svg width="640" height="400" fill="none" xmlns="http://www.w3.org/2000/svg"><path d="M345.924 210.237l3.574.58-2.116-2.937-105.78-146.8453-.863-1.1992-1.212.8459.858 1.23c-.858-1.23-.859-1.2297-.859-1.2293l-.002.001-.004.0032-.016.0109-.056.0397c-.048.0345-.119.085-.211.1516-.183.1331-.452.3306-.8.5933-.695.5254-1.708 1.3113-2.99 2.3638-2.565 2.105-6.21 5.2769-10.556 9.5636-8.691 8.5729-20.193 21.6085-31.476 39.4908-11.294 17.898-18.023 34.551-21.93 46.737-1.954 6.094-3.204 11.074-3.966 14.538-.381 1.732-.64 3.086-.804 4.011-.083.462-.141.817-.18 1.059-.019.121-.033.213-.043.277l-.01.073-.003.02-.001.006v.001c0 .001 0 .002 1.485.21l-1.485-.208-.204 1.453 1.449.236 178.201 28.924z" fill="#FFEA56" stroke="#000" stroke-width="3"/><mask id="a" maskUnits="userSpaceOnUse" x="132" y="40" width="221" height="232"><path d="M345.924 210.237l3.574.58-2.116-2.937-105.78-146.8453-.863-1.1992-1.212.8459.858 1.23c-.858-1.23-.859-1.2297-.859-1.2293l-.002.001-.004.0032-.016.0109-.056.0397c-.048.0345-.119.085-.211.1516-.183.1331-.452.3306-.8.5933-.695.5254-1.708 1.3113-2.99 2.3638-2.565 2.105-6.21 5.2769-10.556 9.5636-8.691 8.5729-20.193 21.6085-31.476 39.4908-11.294 17.898-18.023 34.551-21.93 46.737-1.954 6.094-3.204 11.074-3.966 14.538-.381 1.732-.64 3.086-.804 4.011-.083.462-.141.817-.18 1.059-.019.121-.033.213-.043.277l-.01.073-.003.02-.001.006v.001c0 .001 0 .002 1.485.21l-1.485-.208-.204 1.453 1.449.236 178.201 28.924z" fill="#fff" stroke="#fff" stroke-width="3"/></mask><g mask="url(#a)"><path fill-rule="evenodd" clip-rule="evenodd" d="M251.722 77.4172l-11.157-15.4841S217.29 78.174 194.864 113.711c-22.426 35.537-26.716 66.121-26.716 66.121l19.347 3.141c2.551-10.972 9.313-33.855 25.352-59.271 14.973-23.7272 30.325-38.8523 38.875-46.2848z" fill="#8BB2E8"/></g><path d="M186.717 181.371c6.235-21.867 14.475-40.459 25.678-57.941 11.203-17.483 24.109-32.4731 38.718-44.9717" stroke="#000" stroke-width="3" stroke-linecap="square"/><path fill-rule="evenodd" clip-rule="evenodd" d="M299.173 169.537c1.457 3.794-.294 7.994-3.91 9.382-3.508 1.347-7.482-.448-9.047-4.02l-6.455 3.183c3.532 7.317 12.03 10.47 18.981 7.043 6.95-3.427 9.722-12.136 6.19-19.453l-6.139 3.026c.142.268.269.548.38.839zM233.148 169.662c6.96-2.672 10.437-10.481 7.765-17.442-2.672-6.96-10.48-10.437-17.441-7.765-6.961 2.672-10.437 10.481-7.765 17.441 2.671 6.961 10.48 10.438 17.441 7.766zM258.373 132.129c6.96-2.672 10.437-10.481 7.765-17.441-2.672-6.961-10.481-10.438-17.441-7.766-6.961 2.672-10.437 10.481-7.766 17.442 2.672 6.96 10.481 10.437 17.442 7.765zM273.25 163.908c4.64-1.781 6.878-7.196 4.997-12.094-1.88-4.898-7.166-7.425-11.806-5.644-4.641 1.782-6.878 7.197-4.998 12.095 1.88 4.898 7.166 7.425 11.807 5.643z" fill="#B23221"/><path d="M344.798 248.583l26.786-42.904 25.874 16.182-26.773 42.883c-4.465 7.153-13.885 9.328-21.034 4.857-7.141-4.466-9.313-13.874-4.853-21.018z" fill="#1F1D1B" stroke="#000" stroke-width="3"/><path fill-rule="evenodd" clip-rule="evenodd" d="M438.22 228.951c-18.557 6.382-39.301 5.363-56.432-5.403-17.132-10.765-27.136-29.069-29.568-48.641l86 54.044z" fill="#1F1D1B"/><path fill-rule="evenodd" clip-rule="evenodd" d="M436.672 229.907l-84.606-52.81c-2.578-17.123.716-35.378 10.187-50.518 19.914-31.8343 65.825-47.8024 97.694-27.9102s37.627 68.1122 17.713 99.9462c-9.47 15.14-24.452 26.101-40.988 31.292z" fill="#E376B5"/><path clip-rule="evenodd" d="M380.777 224.039c31.802 19.89 75.985 6.537 95.857-25.293s14.126-80.043-17.676-99.932c-31.802-19.8895-77.617-3.9237-97.489 27.906-19.872 31.83-12.494 77.43 19.308 97.319z" stroke="#000" stroke-width="3"/><path d="M408.995 271.79c1.21-.519 1.21-.519 6.581-2.862 4.958-2.148 8.429-4.101 11.499-6.472 2.632-2.02 4.198-3.956 5.311-6.58 1.425-3.358 1.39-6.386-.12-8.761-.868-1.359-2.129-2.473-3.598-3.096-1.26-.535-2.877-.809-3.91-.71-1.606.185-3.288 1.328-4.331 2.909-.62.975-.814 1.14-1.024 1.051-.21-.089-.2-.209.045-1.467.388-1.693.102-3.548-.731-4.892-.642-1.016-1.627-1.806-3.132-2.444-2.623-1.114-4.948-.986-7.178.379-1.738 1.079-3.323 2.965-4.184 4.994-1.456 3.428-1.464 8.213.049 14.181 1.002 4.058 1.334 5.024 4.723 13.77z" fill="#E8B9CE"/><path d="M408.995 271.79l-1.399.542.561 1.448 1.428-.611-.59-1.379zm6.581-2.862l-.596-1.377-.004.002.6 1.375zm11.499-6.472l-.913-1.19-.004.003.917 1.187zm5.191-15.341l1.266-.805-.002-.002-1.264.807zm-7.508-3.806l-.142-1.493-.015.001-.015.002.172 1.49zm-4.331 2.909l-1.252-.826-.007.01-.006.011 1.265.805zm-.979-.416l-1.462-.335-.006.024-.004.024 1.472.287zm-.731-4.892l1.276-.79-.008-.012-1.268.802zm-10.31-2.065l-.783-1.28-.009.005.792 1.275zm-4.135 19.175l1.456-.36-.002-.009-1.454.369zm5.313 15.149c1.217-.521 1.223-.524 6.591-2.867l-1.2-2.749c-5.373 2.345-5.367 2.342-6.571 2.858l1.18 2.758zm6.588-2.865c5.03-2.179 8.62-4.19 11.819-6.661l-1.834-2.374c-2.942 2.271-6.294 4.166-11.178 6.282l1.193 2.753zm11.815-6.658c2.803-2.151 4.548-4.285 5.779-7.184l-2.762-1.172c-.996 2.348-2.381 4.087-4.843 5.976l1.826 2.38zm5.779-7.184c1.553-3.658 1.618-7.237-.235-10.152L431 247.92c1.167 1.835 1.303 4.313.005 7.37l2.762 1.172zm-.237-10.154c-1.017-1.593-2.506-2.919-4.276-3.67l-1.172 2.762c1.167.495 2.201 1.397 2.92 2.522l2.528-1.614zm-4.276-3.67c-1.444-.613-3.312-.949-4.638-.822l.285 2.986c.739-.07 2.105.141 3.181.598l1.172-2.762zm-4.668-.819c-2.134.246-4.177 1.703-5.411 3.573l2.504 1.652c.852-1.291 2.173-2.121 3.251-2.245l-.344-2.98zm-5.424 3.594c-.149.233-.26.399-.345.518-.09.125-.124.158-.116.15.007-.007.041-.04.102-.082.062-.043.165-.104.308-.149.15-.048.316-.069.489-.056.167.013.3.057.389.094l-1.172 2.762c.317.135.741.205 1.201.059.387-.123.653-.355.803-.505.288-.287.574-.713.872-1.181l-2.531-1.61zm.827.475c.048.021.38.161.601.548.097.17.136.325.151.424.015.093.013.157.013.165 0 .008.002-.044.033-.225.028-.168.071-.394.133-.711l-2.944-.574c-.11.563-.208 1.059-.22 1.408-.006.18-.007.587.228 1 .271.473.68.662.833.727l1.172-2.762zm.921.249c.469-2.045.14-4.31-.918-6.017l-2.55 1.58c.608.981.851 2.427.544 3.767l2.924.67zm-.925-6.029c-.845-1.337-2.107-2.299-3.814-3.023l-1.172 2.761c1.302.553 2.012 1.171 2.451 1.865l2.535-1.603zm-3.814-3.023c-3.025-1.285-5.865-1.161-8.547.48l1.565 2.559c1.779-1.088 3.589-1.22 5.81-.278l1.172-2.761zm-8.556.485c-2.019 1.254-3.8 3.39-4.773 5.683l2.761 1.172c.749-1.765 2.138-3.402 3.595-4.306l-1.583-2.549zm-4.773 5.683c-1.641 3.865-1.572 9.03-.024 15.135l2.908-.737c-1.478-5.829-1.392-10.235-.123-13.226l-2.761-1.172zm-.027 15.126c1.027 4.159 1.391 5.203 4.781 13.953l2.797-1.084c-3.386-8.741-3.688-9.631-4.665-13.588l-2.913.719z" fill="#1F1D1B"/><ellipse cx="269" cy="311.5" rx="1" ry=".5" fill="#C4C4C4"/></svg>

<svg width="640" height="400" viewBox="0 0 640 400" fill="none" xmlns="http://www.w3.org/2000/svg">
<path d="M345.924 210.237L349.498 210.817L347.382 207.88L241.602 61.0347L240.739 59.8355L239.527 60.6814L240.385 61.9114C239.527 60.6814 239.526 60.6817 239.526 60.6821L239.524 60.6831L239.52 60.6863L239.504 60.6972L239.448 60.7369C239.4 60.7714 239.329 60.8219 239.237 60.8885C239.054 61.0216 238.785 61.2191 238.437 61.4818C237.742 62.0072 236.729 62.7931 235.447 63.8456C232.882 65.9506 229.237 69.1225 224.891 73.4092C216.2 81.9821 204.698 95.0177 193.415 112.9C182.121 130.798 175.392 147.451 171.485 159.637C169.531 165.731 168.281 170.711 167.519 174.175C167.138 175.907 166.879 177.261 166.715 178.186C166.632 178.648 166.574 179.003 166.535 179.245C166.516 179.366 166.502 179.458 166.492 179.522L166.482 179.595L166.479 179.615L166.478 179.621L166.478 179.622C166.478 179.623 166.478 179.624 167.963 179.832L166.478 179.624L166.274 181.077L167.723 181.313L345.924 210.237Z" fill="#FFEA56" stroke="black" stroke-width="3"/>
<mask id="mask0" mask-type="alpha" maskUnits="userSpaceOnUse" x="132" y="40" width="221" height="232">
<path d="M345.924 210.237L349.498 210.817L347.382 207.88L241.602 61.0347L240.739 59.8355L239.527 60.6814L240.385 61.9114C239.527 60.6814 239.526 60.6817 239.526 60.6821L239.524 60.6831L239.52 60.6863L239.504 60.6972L239.448 60.7369C239.4 60.7714 239.329 60.8219 239.237 60.8885C239.054 61.0216 238.785 61.2191 238.437 61.4818C237.742 62.0072 236.729 62.7931 235.447 63.8456C232.882 65.9506 229.237 69.1225 224.891 73.4092C216.2 81.9821 204.698 95.0177 193.415 112.9C182.121 130.798 175.392 147.451 171.485 159.637C169.531 165.731 168.281 170.711 167.519 174.175C167.138 175.907 166.879 177.261 166.715 178.186C166.632 178.648 166.574 179.003 166.535 179.245C166.516 179.366 166.502 179.458 166.492 179.522L166.482 179.595L166.479 179.615L166.478 179.621L166.478 179.622C166.478 179.623 166.478 179.624 167.963 179.832L166.478 179.624L166.274 181.077L167.723 181.313L345.924 210.237Z" fill="white" stroke="white" stroke-width="3"/>
</mask>
<g mask="url(#mask0)">
<path fill-rule="evenodd" clip-rule="evenodd" d="M251.722 77.4172L240.565 61.9331C240.565 61.9331 217.29 78.174 194.864 113.711C172.438 149.248 168.148 179.832 168.148 179.832L187.495 182.973C190.046 172.001 196.808 149.118 212.847 123.702C227.82 99.9748 243.172 84.8497 251.722 77.4172Z" fill="#8BB2E8"/>
</g>
<path d="M186.717 181.371C192.952 159.504 201.192 140.912 212.395 123.43C223.598 105.947 236.504 90.9569 251.113 78.4583" stroke="black" stroke-width="3" stroke-linecap="square"/>
<path fill-rule="evenodd" clip-rule="evenodd" d="M299.173 169.537C300.63 173.331 298.879 177.531 295.263 178.919C291.755 180.266 287.781 178.471 286.216 174.899L279.761 178.082C283.293 185.399 291.791 188.552 298.742 185.125C305.692 181.698 308.464 172.989 304.932 165.672L298.793 168.698C298.935 168.966 299.062 169.246 299.173 169.537Z" fill="#B23221"/>
<path fill-rule="evenodd" clip-rule="evenodd" d="M233.148 169.662C240.108 166.99 243.585 159.181 240.913 152.22C238.241 145.26 230.433 141.783 223.472 144.455C216.511 147.127 213.035 154.936 215.707 161.896C218.378 168.857 226.187 172.334 233.148 169.662Z" fill="#B23221"/>
<path fill-rule="evenodd" clip-rule="evenodd" d="M258.373 132.129C265.333 129.457 268.81 121.648 266.138 114.688C263.466 107.727 255.657 104.25 248.697 106.922C241.736 109.594 238.26 117.403 240.931 124.364C243.603 131.324 251.412 134.801 258.373 132.129Z" fill="#B23221"/>
<path fill-rule="evenodd" clip-rule="evenodd" d="M273.25 163.908C277.89 162.127 280.128 156.712 278.247 151.814C276.367 146.916 271.081 144.389 266.441 146.17C261.8 147.952 259.563 153.367 261.443 158.265C263.323 163.163 268.609 165.69 273.25 163.908Z" fill="#B23221"/>
<path d="M344.798 248.583L371.584 205.679L397.458 221.861L370.685 264.744C366.22 271.897 356.8 274.072 349.651 269.601C342.51 265.135 340.338 255.727 344.798 248.583Z" fill="#1F1D1B" stroke="black" stroke-width="3"/>
<path fill-rule="evenodd" clip-rule="evenodd" d="M438.22 228.951C419.663 235.333 398.919 234.314 381.788 223.548C364.656 212.783 354.652 194.479 352.22 174.907L438.22 228.951Z" fill="#1F1D1B"/>
<path fill-rule="evenodd" clip-rule="evenodd" d="M436.672 229.907L352.066 177.097C349.488 159.974 352.782 141.719 362.253 126.579C382.167 94.7447 428.078 78.7766 459.947 98.6688C491.816 118.561 497.574 166.781 477.66 198.615C468.19 213.755 453.208 224.716 436.672 229.907Z" fill="#E376B5"/>
<path fill-rule="evenodd" clip-rule="evenodd" d="M380.777 224.039C412.579 243.929 456.762 230.576 476.634 198.746C496.506 166.916 490.76 118.703 458.958 98.814C427.156 78.9245 381.341 94.8903 361.469 126.72C341.597 158.55 348.975 204.15 380.777 224.039Z" stroke="black" stroke-width="3"/>
<path d="M408.995 271.79C410.205 271.271 410.205 271.271 415.576 268.928C420.534 266.78 424.005 264.827 427.075 262.456C429.707 260.436 431.273 258.5 432.386 255.876C433.811 252.518 433.776 249.49 432.266 247.115C431.398 245.756 430.137 244.642 428.668 244.019C427.408 243.484 425.791 243.21 424.758 243.309C423.152 243.494 421.47 244.637 420.427 246.218C419.807 247.193 419.613 247.358 419.403 247.269C419.193 247.18 419.203 247.06 419.448 245.802C419.836 244.109 419.55 242.254 418.717 240.91C418.075 239.894 417.09 239.104 415.585 238.466C412.962 237.352 410.637 237.48 408.407 238.845C406.669 239.924 405.084 241.81 404.223 243.839C402.767 247.267 402.759 252.052 404.272 258.02C405.274 262.078 405.606 263.044 408.995 271.79Z" fill="#E8B9CE"/>
<path d="M408.995 271.79L407.596 272.332L408.157 273.78L409.585 273.169L408.995 271.79ZM415.576 268.928L414.98 267.551L414.976 267.553L415.576 268.928ZM427.075 262.456L426.162 261.266L426.158 261.269L427.075 262.456ZM432.266 247.115L433.532 246.31L433.53 246.308L432.266 247.115ZM424.758 243.309L424.616 241.816L424.601 241.817L424.586 241.819L424.758 243.309ZM420.427 246.218L419.175 245.392L419.168 245.402L419.162 245.413L420.427 246.218ZM419.448 245.802L417.986 245.467L417.98 245.491L417.976 245.515L419.448 245.802ZM418.717 240.91L419.993 240.12L419.985 240.108L418.717 240.91ZM408.407 238.845L407.624 237.565L407.615 237.57L408.407 238.845ZM404.272 258.02L405.728 257.66L405.726 257.651L404.272 258.02ZM409.585 273.169C410.802 272.648 410.808 272.645 416.176 270.302L414.976 267.553C409.603 269.898 409.609 269.895 408.405 270.411L409.585 273.169ZM416.173 270.304C421.203 268.125 424.793 266.114 427.992 263.643L426.158 261.269C423.216 263.54 419.864 265.435 414.98 267.551L416.173 270.304ZM427.988 263.646C430.791 261.495 432.536 259.361 433.767 256.462L431.005 255.29C430.009 257.638 428.624 259.377 426.162 261.266L427.988 263.646ZM433.767 256.462C435.32 252.804 435.385 249.225 433.532 246.31L431 247.92C432.167 249.755 432.303 252.233 431.005 255.29L433.767 256.462ZM433.53 246.308C432.513 244.715 431.024 243.389 429.254 242.638L428.082 245.4C429.249 245.895 430.283 246.797 431.002 247.922L433.53 246.308ZM429.254 242.638C427.81 242.025 425.942 241.689 424.616 241.816L424.901 244.802C425.64 244.732 427.006 244.943 428.082 245.4L429.254 242.638ZM424.586 241.819C422.452 242.065 420.409 243.522 419.175 245.392L421.679 247.044C422.531 245.753 423.852 244.923 424.93 244.799L424.586 241.819ZM419.162 245.413C419.013 245.646 418.902 245.812 418.817 245.931C418.727 246.056 418.693 246.089 418.701 246.081C418.708 246.074 418.742 246.041 418.803 245.999C418.865 245.956 418.968 245.895 419.111 245.85C419.261 245.802 419.427 245.781 419.6 245.794C419.767 245.807 419.9 245.851 419.989 245.888L418.817 248.65C419.134 248.785 419.558 248.855 420.018 248.709C420.405 248.586 420.671 248.354 420.821 248.204C421.109 247.917 421.395 247.491 421.693 247.023L419.162 245.413ZM419.989 245.888C420.037 245.909 420.369 246.049 420.59 246.436C420.687 246.606 420.726 246.761 420.741 246.86C420.756 246.953 420.754 247.017 420.754 247.025C420.754 247.033 420.756 246.981 420.787 246.8C420.815 246.632 420.858 246.406 420.92 246.089L417.976 245.515C417.866 246.078 417.768 246.574 417.756 246.923C417.75 247.103 417.749 247.51 417.984 247.923C418.255 248.396 418.664 248.585 418.817 248.65L419.989 245.888ZM420.91 246.137C421.379 244.092 421.05 241.827 419.992 240.12L417.442 241.7C418.05 242.681 418.293 244.127 417.986 245.467L420.91 246.137ZM419.985 240.108C419.14 238.771 417.878 237.809 416.171 237.085L414.999 239.846C416.301 240.399 417.011 241.017 417.45 241.711L419.985 240.108ZM416.171 237.085C413.146 235.8 410.306 235.924 407.624 237.565L409.189 240.124C410.968 239.036 412.778 238.904 414.999 239.846L416.171 237.085ZM407.615 237.57C405.596 238.824 403.815 240.96 402.842 243.253L405.603 244.425C406.352 242.66 407.741 241.023 409.198 240.119L407.615 237.57ZM402.842 243.253C401.201 247.118 401.27 252.283 402.818 258.388L405.726 257.651C404.248 251.822 404.334 247.416 405.603 244.425L402.842 243.253ZM402.815 258.379C403.842 262.538 404.206 263.582 407.596 272.332L410.393 271.248C407.007 262.507 406.705 261.617 405.728 257.66L402.815 258.379Z" fill="#1F1D1B"/>
<ellipse cx="269" cy="311.5" rx="1" ry="0.5" fill="#C4C4C4"/>
</svg>
